svgs/fm_radio.svg

<svg width="24" height="24" viewBox="0 0 24 24" fill="none" xmlns="http://www.w3.org/2000/svg">
<path d="M3.24 6.15C2.51 6.43 2 7.17 2 8V20C2 20.5304 2.21071 21.0391 2.58579 21.4142C2.96086 21.7893 3.46957 22 4 22H20C20.5304 22 21.0391 21.7893 21.4142 21.4142C21.7893 21.0391 22 20.5304 22 20V8C22 6.89 21.11 6 20 6H8.3L16.56 2.66L15.88 1L3.24 6.15ZM7 20C5.34 20 4 18.66 4 17C4 15.34 5.34 14 7 14C8.66 14 10 15.34 10 17C10 18.66 8.66 20 7 20ZM20 12H18V10H16V12H4V8H20V12Z" fill="black"/>
</svg>

<svg xmlns="http://www.w3.org/2000/svg" width="24" height="24" fill="none" viewBox="0 0 24 24"><path fill="#000" d="M3.24 6.15C2.51 6.43 2 7.17 2 8v12a2 2 0 0 0 2 2h16a2 2 0 0 0 2-2V8c0-1.11-.89-2-2-2H8.3l8.26-3.34L15.88 1zM7 20c-1.66 0-3-1.34-3-3s1.34-3 3-3 3 1.34 3 3-1.34 3-3 3m13-8h-2v-2h-2v2H4V8h16z"/></svg>
